X:882
T:Reel 882
M:4/4
K:Dmaj
L:1/8
A>F (3FGF B>F (3FGF |B>c (3dcd F>A (3ABc |d>c (3ccA B>E (3GFE |D>C (3EDE F>D (3GFE | (3FGF B>c d>A (3FGF | (3GFE F>D F>E (3CDE |D>C (3CB,A, D>F (3EDC |D2A,D CD2|
